img/twitch.svg

<svg xmlns="http://www.w3.org/2000/svg" width="24" height="24" fill="none" viewBox="0 0 24 24">
  <path fill="#6441A5" fill-rule="evenodd" d="m16.673 16.163 3.43-3.429V1.959H3.939v14.204h4.408v2.939l2.94-2.939h5.386ZM1 3.92 1.98 0h20.08v13.715l-7.836 7.835h-3.917L7.857 24H5.409v-2.45H1V3.92Zm10.286 7.836h-1.96V5.877h1.96v5.878Zm5.387 0h-1.959V5.877h1.96v5.878Z" clip-rule="evenodd"/>
</svg>

<svg width="24" height="24" viewBox="0 0 24 24" fill="none" xmlns="http://www.w3.org/2000/svg">
<path fill-rule="evenodd" clip-rule="evenodd" d="M16.673 16.163L20.103 12.734V1.959H3.939V16.163H8.347V19.102L11.287 16.163H16.673ZM1 3.92L1.98 0H22.06V13.715L14.224 21.55H10.307L7.857 24H5.409V21.55H1V3.92ZM11.286 11.756H9.326V5.877H11.286V11.756ZM16.673 11.756H14.714V5.877H16.674V11.755L16.673 11.756Z" fill="#6441A5"/>
</svg>
